Yaru++/status/symbolic/auth-sim-locked-symbolic.svg

<svg height="16" width="16" xmlns="http://www.w3.org/2000/svg"><path d="m4 0c-2 0-2 2-2 2v12c0 2 2 2 2 2h2.5v-4.998047h-2.5019531v-1.9999999h2.5019531v-.8535156h.8574219v-.1425781h-.359375v-2h.6191406c.6008106-1.735048 2.2365925-2.9999999 4.1679685-3 .809373-.0000002 1.559665.2370068 2.214844.6210937v-.6269531l-3-3zm7.785156 5.8632812c-.249849.0000001-.478639.056422-.683594.1503907.888936.0711569.898438.9863281.898438.9863281l-.002 1.0019531h-1.783203v.1464844h3.142578v-.7128906c0-.9004904-.671775-1.5722657-1.572266-1.5722657zm-6.785156.1367188.9980469.00586v2h-2l.0019531-1.00586s0-1 1-1zm-1.0019531 6.001953h2v2l-.9980469-.001953c-1 0-1-1-1-1z" fill="#404040" opacity=".5"/><path d="m11.785714 4.006a3.4285714 3.4285714 0 0 0 -3.4285711 3.4285714v1.7142857h-.8571429v6.8571429h8.571429v-6.8571429h-.857143v-1.7142857a3.4285714 3.4285714 0 0 0 -3.428572-3.4285714zm0 .8571429c1.431429 0 2.571429 1.14 2.571429 2.5714285v1.7142857h-5.1428573v-1.7142857c0-1.4314285 1.1400003-2.5714285 2.5714283-2.5714285z" fill="#808080" stroke-width=".857143"/></svg>

<?xml version="1.0" encoding="UTF-8" standalone="no"?>
<svg
   xmlns:dc="http://purl.org/dc/elements/1.1/"
   xmlns:cc="http://creativecommons.org/ns#"
   xmlns:rdf="http://www.w3.org/1999/02/22-rdf-syntax-ns#"
   xmlns:svg="http://www.w3.org/2000/svg"
   xmlns="http://www.w3.org/2000/svg"
   xmlns:sodipodi="http://sodipodi.sourceforge.net/DTD/sodipodi-0.dtd"
   xmlns:inkscape="http://www.inkscape.org/namespaces/inkscape"
   width="16"
   height="16"
   version="1.1"
   id="svg4"
   sodipodi:docname="auth-sim-locked-symbolic.svg"
   inkscape:version="0.92.4 (5da689c313, 2019-01-14)">
  <metadata
     id="metadata10">
    <rdf:RDF>
      <cc:Work
         rdf:about="">
        <dc:format>image/svg+xml</dc:format>
        <dc:type
           rdf:resource="http://purl.org/dc/dcmitype/StillImage" />
        <dc:title></dc:title>
      </cc:Work>
    </rdf:RDF>
  </metadata>
  <defs
     id="defs8" />
  <sodipodi:namedview
     pagecolor="#ffffff"
     bordercolor="#666666"
     borderopacity="1"
     objecttolerance="10"
     gridtolerance="10"
     guidetolerance="10"
     inkscape:pageopacity="0"
     inkscape:pageshadow="2"
     inkscape:window-width="1920"
     inkscape:window-height="1016"
     id="namedview6"
     showgrid="false"
     inkscape:zoom="14.75"
     inkscape:cx="8"
     inkscape:cy="8"
     inkscape:window-x="0"
     inkscape:window-y="27"
     inkscape:window-maximized="1"
     inkscape:current-layer="svg4" />
  <path
     style="opacity:0.5;fill:#404040;fill-opacity:1"
     d="M 4,0 C 2,0 2,2 2,2 v 12 c 0,2 2,2 2,2 H 6.5 V 11.001953 H 3.9980469 V 9.0019531 H 6.5 V 8.1484375 H 7.3574219 V 8.0058594 h -0.359375 v -2 h 0.6191406 c 0.6008106,-1.735048 2.2365925,-2.9999999 4.1679685,-3 0.809373,-2e-7 1.559665,0.2370068 2.214844,0.6210937 V 3 L 11,0 Z m 7.785156,5.8632812 c -0.249849,10e-8 -0.478639,0.056422 -0.683594,0.1503907 C 11.990498,6.0848288 12,7 12,7 l -0.002,1.0019531 h -1.783203 v 0.1464844 h 3.142578 V 7.4355469 c 0,-0.9004904 -0.671775,-1.5722657 -1.572266,-1.5722657 z M 5,6 l 0.9980469,0.00586 v 2 h -2 L 4,7 C 4,7 4,6 5,6 Z m -1.0019531,6.001953 h 2 v 2 L 5,14 C 4,14 4,13 4,13 Z"
     id="path2"
     inkscape:connector-curvature="0"
     sodipodi:nodetypes="scsccccccccccccscccssccccccsscccccccccccc" />
  <path
     id="path817"
     style="color:#000000;font-weight:400;line-height:normal;font-family:sans-serif;text-indent:0;text-align:start;text-decoration:none;text-decoration-line:none;text-decoration-style:solid;text-decoration-color:#000000;text-transform:none;white-space:normal;shape-padding:0;overflow:visible;isolation:auto;mix-blend-mode:normal;fill:#808080;stroke-width:0.85714287;marker:none"
     overflow="visible"
     font-weight="400"
     d="M 11.785714,4.006 A 3.4285714,3.4285714 0 0 0 8.3571429,7.4345714 V 9.1488571 H 7.5 V 16.006 h 8.571429 V 9.1488571 H 15.214286 V 7.4345714 A 3.4285714,3.4285714 0 0 0 11.785714,4.006 Z m 0,0.8571429 c 1.431429,0 2.571429,1.14 2.571429,2.5714285 V 9.1488571 H 9.2142857 V 7.4345714 c 0,-1.4314285 1.1400003,-2.5714285 2.5714283,-2.5714285 z"
     inkscape:connector-curvature="0" />
</svg>
